X: 11121
Q: "Lively"
M: 2/4
L: 1/8
K: C
g | e c c c | d B c d |
e c d d | e c d G | G c c c |
e c f d | g e z2 | f2 d2 | e c z2 |
f2 d2 | e c z2 | e2 d c | A3 B | c2 d2 |
e c c c | d B c d | e c d d |
e c d G | G c c c | B c d G |
g e z2 | f2 d2 | e c z2 | f2 d2 |
e c gc' | afdg | e2 e2 | e2 z2 |]




